src/pos-icons/file-pdf-outline.svg

<svg height="24" viewBox="0 0 24 24" width="24" xmlns="http://www.w3.org/2000/svg"><path d="m14 2 6 6v12a2 2 0 0 1 -2 2h-12a2 2 0 0 1 -2-2v-16a2 2 0 0 1 2-2zm4 18v-11h-5v-5h-7v16zm-7.08-7.69c-.24-.77-.77-3.23.63-3.27s.48 3.12.48 3.12c.39 1.49 2.02 2.56 2.02 2.56.5-.15 3.35-.48 2.95 1-.43 1.48-3.5.09-3.5.09-1.95.14-3.41.66-3.41.66-1.13 2.11-2.45 3.03-2.99 2.14-.67-1.11 2.13-2.54 2.13-2.54 1.45-2.35 1.67-3.72 1.69-3.76m.65.84c-.4 1.3-1.2 2.69-1.2 2.69.85-.34 2.71-.73 2.71-.73-1.14-1-1.49-1.95-1.51-1.96m3.14 2.17s1.75.65 1.79.39c.07-.27-1.33-.51-1.79-.39m-5.66 1.49c-.77.3-1.51 1.58-1.33 1.58.18.01.91-.6 1.33-1.58m2.52-5.55c0-.05.43-1.68 0-1.73-.3-.03-.01 1.69 0 1.73z"/></svg>

<?xml version="1.0" encoding="UTF-8"?><!DOCTYPE svg PUBLIC "-//W3C//DTD SVG 1.1//EN" "http://www.w3.org/Graphics/SVG/1.1/DTD/svg11.dtd"><svg xmlns="http://www.w3.org/2000/svg" xmlns:xlink="http://www.w3.org/1999/xlink" version="1.1" id="mdi-file-pdf-outline" width="24" height="24" viewBox="0 0 24 24"><path d="M14,2L20,8V20A2,2 0 0,1 18,22H6A2,2 0 0,1 4,20V4A2,2 0 0,1 6,2H14M18,20V9H13V4H6V20H18M10.92,12.31C10.68,11.54 10.15,9.08 11.55,9.04C12.95,9 12.03,12.16 12.03,12.16C12.42,13.65 14.05,14.72 14.05,14.72C14.55,14.57 17.4,14.24 17,15.72C16.57,17.2 13.5,15.81 13.5,15.81C11.55,15.95 10.09,16.47 10.09,16.47C8.96,18.58 7.64,19.5 7.1,18.61C6.43,17.5 9.23,16.07 9.23,16.07C10.68,13.72 10.9,12.35 10.92,12.31M11.57,13.15C11.17,14.45 10.37,15.84 10.37,15.84C11.22,15.5 13.08,15.11 13.08,15.11C11.94,14.11 11.59,13.16 11.57,13.15M14.71,15.32C14.71,15.32 16.46,15.97 16.5,15.71C16.57,15.44 15.17,15.2 14.71,15.32M9.05,16.81C8.28,17.11 7.54,18.39 7.72,18.39C7.9,18.4 8.63,17.79 9.05,16.81M11.57,11.26C11.57,11.21 12,9.58 11.57,9.53C11.27,9.5 11.56,11.22 11.57,11.26Z" /></svg>
